X:1
T:Bryan O'Lynn (1)
M:6/8
L:1/8
K:Eb
 F3/2 G/2 F A2 A/2A/2| GEE E2 F| F3/2 G/2 F f2 f/2f/2| e3/2 c/2 c c2 c/2d/2|\
 eAc edc| B3/2 d/2 c G2A/2-B/2| c3/2 d/2 c cBc| A/2 F3/2 F F3|
